X: 19216
T: Isle Of France
R: polka
M: 2/4
K: Gmajor
B/c/|d B/c/ dg|e2 c2|AA dd|c/B/A/B/ GB/c/|
dB/c/ dg|e2 a2|g/f/e/d/ ef|gbg:|:B|caac|
Bggd|edcB|AA AB|caac|Bgg>a|g/f/e/d/ ef|
gbg:|:B|b3 a|g3 f|edcB|AAAa|c'3 b|a3 g|
g/f/e/d/ e f|g3:|

